!!!OTL: Fraeulein von Britannia
!!!ARE: Europa, Mitteleuropa, Deutschland
!!!SCT: A0379
!!!YEM: Copyright 1995, estate of Helmut Schaffrath.
**kern
*ICvox
*Ivox
!! Mixed meters:  4/2; 6/2
*M6/2
*k[b-]
*F:
{2ff
=1
2ff
2ff
2ff
2ff
=2
2ee
2dd
2r}
{2dd
=3
2ee
2ff
2gg
2ff
2ee
2dd
=4
*M4/2
1cc
2r}
{2cc
=5
2cc
2dd
4ee
4dd
2ee
=6
1ff
1cc}
=7
{2.f
4ee
=8
*M6/2
2dd
2cc
2a
2b-
1g
=9
1f
2r}
{2f
2a
4b-
4cc
=10
1dd
2cc
2b-
2a
2g
=11
*M4/2
1a
2r}
{2f
=12
2cc
2dd
4ee
4ff
4gg
4ff
=13
1ee
1cc}
=14
{2.ff
4ee
=15
*M6/2
2dd
2cc
2a
2b-
1g
=16
1.f}
==
!!!AGN: Romanze, Ballade, Lied, Personenlied
!! Souterliedekens 1540 ad Ps. 41.
!!!ONB: ESAC (Essen Associative Code) Database: ALTDEU
!!!AMT: irregular
!!!AIN: vox
!!!EED: Helmut Schaffrath
!!!EEV: 1.0
*-
